images/credit.svg

<svg width="156" height="189" viewBox="0 0 156 189" fill="none" xmlns="http://www.w3.org/2000/svg">
<g clip-path="url(#clip0_11337_1269)">
<path d="M141.25 84.127C149.396 84.127 156 77.5232 156 69.377C156 61.2308 149.396 54.627 141.25 54.627C133.104 54.627 126.5 61.2308 126.5 69.377C126.5 77.5232 133.104 84.127 141.25 84.127Z" fill="white"/>
<path d="M89.1131 140.044L82.0391 157.919L59.2151 172.836C57.0471 174.068 55.5811 176.395 55.5811 179.066C55.5811 183.024 58.7891 186.233 62.7481 186.233C64.2831 186.233 65.7031 185.746 66.8691 184.923C70.6301 182.552 89.2201 170.839 92.3641 169.043C95.8641 167.043 96.4891 163.918 96.4891 163.918L101.364 147.918C101.364 147.918 101.364 147.918 95.6141 145.293C89.8641 142.668 89.1131 140.044 89.1131 140.044Z" fill="white"/>
<path d="M139.321 141.962C139.321 141.962 138.163 138.128 134.742 136.795C131.321 135.462 116.655 129.045 116.655 129.045L132.071 103.461C132.071 103.461 135.905 94.461 131.738 90.044C127.571 85.627 117.988 80.294 117.988 80.294H110.467L126.266 53.493C129.62 47.807 127.709 40.412 122.024 37.061L72.6331 7.947C66.9471 4.595 59.5541 6.505 56.2021 12.191L9.14406 92.019C5.79306 97.704 7.70206 105.099 13.3881 108.451L62.7781 137.564C68.4641 140.916 75.8591 139.005 79.2101 133.322L102.144 94.419H110.24L95.4901 120.628C95.4901 120.628 90.3561 129.842 95.1561 134.878C99.3651 139.294 107.823 141.794 107.823 141.794L125.073 148.295L130.174 179.586L130.183 179.585C130.732 182.998 133.682 185.608 137.25 185.608C141.208 185.608 144.416 182.399 144.416 178.441C144.416 178.252 144.402 178.066 144.388 177.881L144.416 177.877L139.321 141.962ZM17.9581 100.698C16.5571 99.872 16.0711 97.99 16.8971 96.59L63.9561 16.761C64.7821 15.36 66.6631 14.873 68.0631 15.699L79.5841 22.491L29.4801 107.489L17.9581 100.698ZM71.4561 128.752C70.6301 130.152 68.7491 130.639 67.3491 129.813L37.2331 112.059L87.3401 27.063L117.453 44.816C118.855 45.642 119.34 47.523 118.515 48.923L100.022 80.295H91.2391L71.3231 94.722C70.8811 94.974 70.4701 95.275 70.0931 95.613L70.0621 95.635L70.0641 95.638C68.6191 96.95 67.7061 98.836 67.7061 100.942C67.7061 104.9 70.9141 108.109 74.8731 108.109C76.4211 108.109 77.8511 107.613 79.0221 106.778L79.0241 106.781L79.0951 106.723C79.2771 106.59 79.4511 106.45 79.6191 106.3L89.2791 98.516L71.4561 128.752Z" fill="white"/>
<path d="M49.2189 6.44296L2.16091 86.272C-1.19009 91.957 0.718907 99.352 6.40491 102.704L55.7949 131.817C61.4809 135.169 68.8759 133.258 72.2269 127.575L119.284 47.746C122.638 42.06 120.727 34.665 115.042 31.314L65.6499 2.19996C59.9649 -1.15204 52.5709 0.757962 49.2189 6.44296ZM9.91391 90.843L56.9729 11.014C57.7989 9.61296 59.6799 9.12596 61.0799 9.95196L72.6009 16.744L22.4959 101.742L10.9739 94.951C9.57391 94.125 9.08791 92.243 9.91391 90.843ZM111.531 43.176L64.4719 123.005C63.6459 124.405 61.7649 124.892 60.3649 124.066L30.2489 106.312L80.3549 21.316L110.468 39.069C111.871 39.894 112.355 41.775 111.531 43.176Z" fill="#F0C42E"/>
<path d="M135.25 78.333C143.396 78.333 150 71.7292 150 63.583C150 55.4368 143.396 48.833 135.25 48.833C127.104 48.833 120.5 55.4368 120.5 63.583C120.5 71.7292 127.104 78.333 135.25 78.333Z" fill="#3A3A3A"/>
<path d="M81.875 134.25L74.801 152.125L51.976 167.042C49.808 168.274 48.342 170.601 48.342 173.272C48.342 177.23 51.55 180.439 55.509 180.439C57.044 180.439 58.464 179.952 59.63 179.129C63.391 176.758 81.981 165.045 85.125 163.249C88.625 161.249 89.25 158.124 89.25 158.124L94.125 142.124C94.125 142.124 94.125 142.124 88.375 139.499C82.625 136.874 81.875 134.25 81.875 134.25Z" fill="#3A3A3A"/>
<path d="M132.083 136.168C132.083 136.168 130.925 132.334 127.504 131.001C124.083 129.668 109.417 123.251 109.417 123.251L124.833 97.667C124.833 97.667 128.667 88.667 124.5 84.25C120.333 79.833 110.75 74.5 110.75 74.5H84L64.085 88.927C63.643 89.18 63.232 89.48 62.855 89.818L62.824 89.84L62.826 89.843C61.381 91.154 60.468 93.041 60.468 95.146C60.468 99.104 63.676 102.313 67.635 102.313C69.183 102.313 70.613 101.817 71.784 100.982L71.786 100.985L71.857 100.927C72.039 100.794 72.214 100.654 72.382 100.504L87.125 88.623H103L88.25 114.832C88.25 114.832 83.116 124.046 87.916 129.082C92.125 133.498 100.583 135.998 100.583 135.998L117.833 142.499L122.934 173.79L122.943 173.789C123.492 177.202 126.442 179.812 130.01 179.812C133.968 179.812 137.176 176.603 137.176 172.645C137.176 172.456 137.162 172.27 137.148 172.085L137.176 172.081L132.083 136.168Z" fill="#3A3A3A"/>
</g>
<defs>
<clipPath id="clip0_11337_1269">
<rect width="156" height="188" fill="white" transform="translate(0 0.5)"/>
</clipPath>
</defs>
</svg>

<svg width="156" height="189" viewBox="0 0 156 189" fill="none" xmlns="http://www.w3.org/2000/svg"><g clip-path="url(#a)"><path d="M141.25 84.13a14.75 14.75 0 1 0 0-29.5 14.75 14.75 0 0 0 0 29.5ZM89.11 140.04l-7.07 17.88-22.82 14.92a7.16 7.16 0 1 0 7.65 12.08c3.76-2.37 22.35-14.08 25.5-15.88 3.5-2 4.12-5.12 4.12-5.12l4.87-16-5.75-2.63c-5.75-2.62-6.5-5.25-6.5-5.25Z" fill="#fff"/><path d="M139.32 141.96s-1.16-3.83-4.58-5.17c-3.42-1.33-18.09-7.75-18.09-7.75l15.42-25.58s3.84-9-.33-13.42c-4.17-4.41-13.75-9.75-13.75-9.75h-7.52l15.8-26.8a12.03 12.03 0 0 0-4.25-16.43L72.63 7.95a12.03 12.03 0 0 0-16.43 4.24L9.14 92.02a12.04 12.04 0 0 0 4.25 16.43l49.39 29.11a12.04 12.04 0 0 0 16.43-4.24l22.93-38.9h8.1l-14.75 26.2s-5.13 9.22-.33 14.26c4.2 4.41 12.66 6.91 12.66 6.91l17.25 6.5 5.1 31.3h.01a7.16 7.16 0 0 0 14.2-1.7l.04-.01-5.1-35.92ZM17.96 100.7a3.04 3.04 0 0 1-1.06-4.11l47.06-79.83a3.04 3.04 0 0 1 4.1-1.06l11.52 6.8-50.1 84.99-11.52-6.8Zm53.5 28.05a3.04 3.04 0 0 1-4.11 1.06l-30.12-17.75 50.11-85 30.11 17.76c1.4.82 1.89 2.7 1.06 4.1L100.03 80.3h-8.78L71.32 94.72c-.44.25-.85.56-1.23.9l-.03.02a7.17 7.17 0 0 0 8.96 11.14l.08-.06c.18-.13.35-.27.52-.42l9.66-7.78-17.82 30.23Z" fill="#fff"/><path d="M49.22 6.44 2.16 86.27A12.04 12.04 0 0 0 6.4 102.7l49.4 29.12a12.04 12.04 0 0 0 16.43-4.24l47.05-79.83a12.03 12.03 0 0 0-4.24-16.44L65.65 2.2a12.04 12.04 0 0 0-16.43 4.24Zm-39.3 84.4 47.05-79.83a3.04 3.04 0 0 1 4.11-1.06l11.52 6.8-50.1 85-11.53-6.8a3.04 3.04 0 0 1-1.06-4.1Zm101.61-47.66L64.47 123a3.04 3.04 0 0 1-4.1 1.07L30.24 106.3l50.1-85 30.12 17.76c1.4.82 1.89 2.7 1.06 4.1Z" fill="#F0C42E"/><path d="M135.25 78.33a14.75 14.75 0 1 0 0-29.5 14.75 14.75 0 0 0 0 29.5ZM81.88 134.25l-7.08 17.88-22.82 14.91a7.16 7.16 0 1 0 7.65 12.09c3.76-2.37 22.35-14.09 25.5-15.88 3.5-2 4.12-5.13 4.12-5.13l4.88-16-5.75-2.62c-5.75-2.63-6.5-5.25-6.5-5.25ZM132.08 136.17s-1.16-3.84-4.58-5.17-18.08-7.75-18.08-7.75l15.41-25.58s3.84-9-.33-13.42-13.75-9.75-13.75-9.75H84L64.08 88.93a7.2 7.2 0 0 0-1.23.89l-.03.02a7.17 7.17 0 0 0 8.96 11.14l.08-.05.52-.43 14.75-11.88H103l-14.75 26.21s-5.13 9.22-.33 14.25c4.2 4.42 12.66 6.92 12.66 6.92l17.25 6.5 5.1 31.29h.01a7.16 7.16 0 0 0 14.2-1.7h.04l-5.1-35.92Z" fill="#3A3A3A"/></g><defs><clipPath id="a"><path fill="#fff" transform="translate(0 .5)" d="M0 0h156v188H0z"/></clipPath></defs></svg>
